app/assets/images/icons/active/parking.svg

<svg width="32" height="232" viewBox="0 0 32 232" xmlns="http://www.w3.org/2000/svg" xmlns:sketch="http://www.bohemiancoding.com/sketch/ns"><title>parking</title><g sketch:type="MSPage" fill="none"><path d="M16.672 124h-7.588c-1.6 0-3.084 1.05-3.084 2.932v19.955c0 2.06 1.293 3.113 3.084 3.113 1.799 0 3.088-1.053 3.088-3.113v-5.394h4.689c5.866 0 9.102-3.697 9.102-8.728 0-5.833-4.529-8.765-9.291-8.765zm-1.19 12.277h-3.31v-7.059h3.31c2.442 0 4.082 1.228 4.082 3.547 0 1.81-1.447 3.512-4.082 3.512zm0 0" id="parking--white" fill="#206FAC" sketch:type="MSShapeGroup"/><path d="M16.672 84h-7.588c-1.6 0-3.084 1.05-3.084 2.932v19.955c0 2.06 1.293 3.113 3.084 3.113 1.799 0 3.088-1.053 3.088-3.113v-5.394h4.689c5.866 0 9.102-3.697 9.102-8.728 0-5.833-4.529-8.765-9.291-8.765zm-1.19 12.277h-3.31v-7.059h3.31c2.442 0 4.082 1.228 4.082 3.547 0 1.81-1.447 3.512-4.082 3.512zm0 0" fill="#fff" sketch:type="MSShapeGroup"/><path d="M16.672 44h-7.588c-1.6 0-3.084 1.05-3.084 2.932v19.955c0 2.06 1.293 3.113 3.084 3.113 1.799 0 3.088-1.053 3.088-3.113v-5.394h4.689c5.866 0 9.102-3.697 9.102-8.728 0-5.833-4.529-8.765-9.291-8.765zm-1.19 12.277h-3.31v-7.059h3.31c2.442 0 4.082 1.228 4.082 3.547 0 1.81-1.447 3.512-4.082 3.512zm0 0" fill="#67737B" sketch:type="MSShapeGroup"/><path d="M16.672 4h-7.588c-1.6 0-3.084 1.05-3.084 2.932v19.955c0 2.06 1.293 3.113 3.084 3.113 1.799 0 3.088-1.053 3.088-3.113v-5.394h4.689c5.866 0 9.102-3.697 9.102-8.728 0-5.833-4.529-8.765-9.291-8.765zm-1.19 12.277h-3.31v-7.059h3.31c2.442 0 4.082 1.228 4.082 3.547 0 1.81-1.447 3.512-4.082 3.512zm0 0" fill="#3A434E" sketch:type="MSShapeGroup"/></g></svg>

<?xml version="1.0" encoding="UTF-8" standalone="no"?>
<svg width="32px" height="232px" viewBox="0 0 32 232" version="1.1" xmlns="http://www.w3.org/2000/svg" xmlns:xlink="http://www.w3.org/1999/xlink" xmlns:sketch="http://www.bohemiancoding.com/sketch/ns">
    <title>parking</title>
    <description>Created with Sketch (http://www.bohemiancoding.com/sketch)</description>
    <defs></defs>
    <g id="Hotel-facilities" stroke="none" stroke-width="1" fill="none" fill-rule="evenodd" sketch:type="MSPage">
        <path d="M16.672,124 L9.084,124 C7.484,124 6,125.05 6,126.932 L6,146.887 C6,148.947 7.293,150 9.084,150 C10.883,150 12.172,148.947 12.172,146.887 L12.172,141.493 L16.861,141.493 C22.727,141.493 25.963,137.796 25.963,132.765 C25.963,126.932 21.434,124 16.672,124 L16.672,124 L16.672,124 L16.672,124 Z M15.482,136.277 L12.172,136.277 L12.172,129.218 L15.482,129.218 C17.924,129.218 19.564,130.446 19.564,132.765 C19.564,134.575 18.117,136.277 15.482,136.277 L15.482,136.277 Z M15.482,136.277" id="parking--white" fill="#206FAC" sketch:type="MSShapeGroup"></path>
        <path d="M16.672,84 L9.084,84 C7.484,84 6,85.05 6,86.932 L6,106.887 C6,108.947 7.293,110 9.084,110 C10.883,110 12.172,108.947 12.172,106.887 L12.172,101.493 L16.861,101.493 C22.727,101.493 25.963,97.796 25.963,92.765 C25.963,86.932 21.434,84 16.672,84 L16.672,84 L16.672,84 L16.672,84 Z M15.482,96.277 L12.172,96.277 L12.172,89.218 L15.482,89.218 C17.924,89.218 19.564,90.446 19.564,92.765 C19.564,94.575 18.117,96.277 15.482,96.277 L15.482,96.277 Z M15.482,96.277" id="parking--white" fill="#FFFFFF" sketch:type="MSShapeGroup"></path>
        <path d="M16.672,44 L9.084,44 C7.484,44 6,45.05 6,46.932 L6,66.887 C6,68.947 7.293,70 9.084,70 C10.883,70 12.172,68.947 12.172,66.887 L12.172,61.493 L16.861,61.493 C22.727,61.493 25.963,57.796 25.963,52.765 C25.963,46.932 21.434,44 16.672,44 L16.672,44 L16.672,44 L16.672,44 Z M15.482,56.277 L12.172,56.277 L12.172,49.218 L15.482,49.218 C17.924,49.218 19.564,50.446 19.564,52.765 C19.564,54.575 18.117,56.277 15.482,56.277 L15.482,56.277 Z M15.482,56.277" id="parking--light-grey" fill="#67737B" sketch:type="MSShapeGroup"></path>
        <path d="M16.672,4 L9.084,4 C7.484,4 6,5.05 6,6.932 L6,26.887 C6,28.947 7.293,30 9.084,30 C10.883,30 12.172,28.947 12.172,26.887 L12.172,21.493 L16.861,21.493 C22.727,21.493 25.963,17.796 25.963,12.765 C25.963,6.932 21.434,4 16.672,4 L16.672,4 L16.672,4 L16.672,4 Z M15.482,16.277 L12.172,16.277 L12.172,9.218 L15.482,9.218 C17.924,9.218 19.564,10.446 19.564,12.765 C19.564,14.575 18.117,16.277 15.482,16.277 L15.482,16.277 Z M15.482,16.277" id="parking--dark-grey" fill="#3A434E" sketch:type="MSShapeGroup"></path>
    </g>
</svg>
